src/img/about-blob.svg

<svg height="667" viewBox="0 0 831 667" width="831" xmlns="http://www.w3.org/2000/svg"><path d="m678.404189 37.5029023c80.64146 52.4282989 103.492089 151.9877427 134.792278 223.3931557 31.30019 71.24459 21.301518 156.963251-29.778652 227.403726-29.52376 40.713797-108.854786 131.671397-213.515192 165.052831-90.363755 28.821517-259.305063 7.504885-359.074416-22.408194-99.769353-29.913078-134.1024199-98.859743-171.2475861-176.957697-37.14516618-78.097954-52.6298351-161.312275-26.7637065-230.626989 25.6487662-69.153891 228.5068816-220.62305755 317.1907506-220.46223455 88.68387.16082301 267.755064-17.98372005 348.396524 34.60540185z" fill="#e1f1fb"/></svg>

<?xml version="1.0" encoding="UTF-8"?>
<svg width="831px" height="667px" viewBox="0 0 831 667" version="1.1" xmlns="http://www.w3.org/2000/svg" xmlns:xlink="http://www.w3.org/1999/xlink">
    <!-- Generator: Sketch 62 (91390) - https://sketch.com -->
    <title>blob-shape (2)</title>
    <desc>Created with Sketch.</desc>
    <g id="Page-1" stroke="none" stroke-width="1" fill="none" fill-rule="evenodd">
        <g id="Desktop-HD" transform="translate(-54.000000, -857.000000)" fill="#E1F1FB" fill-rule="nonzero">
            <g id="blob-shape-(2)" transform="translate(54.000000, 857.000000)">
                <path d="M678.404189,37.5029023 C759.045649,89.9312012 781.896278,189.490645 813.196467,260.896058 C844.496657,332.140648 834.497985,417.859309 783.417815,488.299784 C753.894055,529.013581 674.563029,619.971181 569.902623,653.352615 C479.538868,682.174132 310.59756,660.8575 210.828207,630.944421 C111.058854,601.031343 76.7257871,532.084678 39.5806209,453.986724 C2.43545472,375.88877 -13.0492142,292.674449 12.8169144,223.359735 C38.4656806,154.205844 241.323796,2.73667745 330.007665,2.89750045 C418.691535,3.05832346 597.762729,-15.0862196 678.404189,37.5029023 Z" id="Path"></path>
            </g>
        </g>
    </g>
</svg>
